X:1
T:Goma, 86.86.886
T:Goma, 86.86.886
T:Lowell Mason, 1837, adapted  Richard Adams 2019
T:Public Domain Courtesy of the Cyber Hymnal™
C:Lowell Mason, 1837, adapted  Richard Adams 2019
Z:Public Domain
Z:Courtesy of the Cyber Hymnal™
%%score ( 1 2 ) ( 3 4 )
L:1/8
Q:1/4=97
M:3/4
K:Bb
V:1 treble 
V:2 treble 
V:3 bass 
V:4 bass 
V:1
 [DF]2 | [DB]>[DB] [DB]2 [B,D]2 | [A,C]>[CF] [CF]2 [A,F]2 | [B,F]3 [B,D] [CE][A,C] | [B,D]4 [DF]2 | %5
 [EG]>[EG] [GB]2 [EG]2 | [DF]>[DB] [DB]2 [DF]2 | [EG]3 [EG] [GB][EG] | [DF]3 |: B,[B,D] [CF] | %10
 [B,B]3 F [FB][Fc] | [Fd]3"^Play 2 times" :| [Gd][Gd] [Gd] | [Ge]4 [FA]2 | [FB]4 |] %15
V:2
 x2 | x6 | x6 | x6 | x6 | x6 | x6 | x6 | x3 |: B, x2 | x6 | x3 :| x3 | x6 | x4 |] %15
V:3
 [B,,F,]2 | [B,,F,]>[B,,F,] [B,,F,]2 F,2 | F,>[F,A,] [F,A,]2 [E,F,]2 | %3
 [D,F,]3 [D,F,] [F,,F,][F,,F,] | [D,F,]4 [B,,B,]2 | [E,B,]>[E,B,] [E,B,]2 [E,B,]2 | %6
 [B,,B,]>[B,,F,] [B,,F,]2 [B,,B,]2 | [E,B,]3 [E,B,] [E,B,][E,B,] | [B,,B,]3 |: B,,[B,,F,] [A,,F,] | %10
 [G,,D,]3 F, [D,F,][F,A,] | [B,,B,]3"^Play 2 times" :| [G,=B,][G,B,] [G,B,] | [C,C]4 [F,C]2 | %14
 [B,,D]4 |] %15
V:4
 x2 | x4 (B,,D,) | F,3/2 x9/2 | x6 | x6 | x6 | x6 | x6 | x3 |: B,, x2 | x6 | x3 :| x3 | x6 | x4 |] %15

